svg/fluentui-system-icons/ic_fluent_mail_clock_24_regular.svg

<svg width="24" height="24" viewBox="0 0 24 24" fill="none" xmlns="http://www.w3.org/2000/svg">
<path d="M17.5 1C20.5376 1 23 3.46243 23 6.5C23 9.53757 20.5376 12 17.5 12C14.4624 12 12 9.53757 12 6.5C12 3.46243 14.4624 1 17.5 1ZM19.5 6.50006H17.5L17.5 3.99993C17.5 3.72379 17.2761 3.49993 17 3.49993C16.7239 3.49993 16.5 3.72379 16.5 3.99993L16.5 6.99853L16.5 7.00006C16.5 7.2762 16.7239 7.50006 17 7.50006H19.5C19.7761 7.50006 20 7.2762 20 7.00006C20 6.72391 19.7761 6.50006 19.5 6.50006ZM20.5 16.75V12.2678C21.051 11.9806 21.5557 11.6168 22 11.1904V16.75C22 18.483 20.6435 19.8992 18.9344 19.9949L18.75 20H5.25C3.51697 20 2.10075 18.6435 2.00514 16.9344L2 16.75V7.25C2 5.51697 3.35645 4.10075 5.06558 4.00514L5.25 4H11.4982C11.3004 4.47417 11.1572 4.97679 11.0764 5.5H5.25C4.33183 5.5 3.57881 6.20711 3.5058 7.10647L3.5 7.25V7.679L12 12.1525L13.3052 11.4654C13.7437 11.8363 14.232 12.1501 14.7587 12.3954L12.3493 13.6637C12.1619 13.7623 11.9431 13.7764 11.7468 13.706L11.6507 13.6637L3.5 9.374V16.75C3.5 17.6682 4.20711 18.4212 5.10647 18.4942L5.25 18.5H18.75C19.6682 18.5 20.4212 17.7929 20.4942 16.8935L20.5 16.75Z" fill="#212121"/>
</svg>

<svg xmlns="http://www.w3.org/2000/svg" width="24" height="24"><path d="M17.5 1a5.5 5.5 0 1 1 0 11 5.5 5.5 0 0 1 0-11Zm2 5.5h-2V4a.5.5 0 0 0-1 0v3a.5.5 0 0 0 .5.5h2.5a.5.5 0 0 0 0-1Zm1 10.25v-4.482A6.518 6.518 0 0 0 22 11.19v5.56a3.25 3.25 0 0 1-3.066 3.245L18.75 20H5.25a3.25 3.25 0 0 1-3.245-3.066L2 16.75v-9.5a3.25 3.25 0 0 1 3.066-3.245L5.25 4h6.248a6.451 6.451 0 0 0-.422 1.5H5.25a1.75 1.75 0 0 0-1.744 1.606L3.5 7.25v.429l8.5 4.473 1.305-.687c.439.371.927.685 1.454.93l-2.41 1.269a.75.75 0 0 1-.602.042l-.096-.042L3.5 9.374v7.376a1.75 1.75 0 0 0 1.606 1.744l.144.006h13.5a1.75 1.75 0 0 0 1.744-1.607l.006-.143Z"/></svg>
